!!!OTL: Folk song Number 9
!!!CNT: Chinese
**kern
*k[f#c#]
*M2/4
=1
8a
(16b
16dd
16b
16a
16f#
16a)
=2
(8f#
4.e)
=3
8d
16d
16e
8a
8f#
=4
(16e
16f#
4.d)
=5
8a
(16f#
16a)
(8.b
16a)
=6
(8f#
8a)
4f#
=7
(8.e
16d)
(8B
8A)
=8
2d
=9
8d
(4d
16e
16f#)
=10
8a
(4a
8f#)
=11
(8.e
16d)
(8B
8A)
=12
(8d
4.B)
=13
8a
8dd
(8.b
16a)
=14
8f#
8a
4B
=15
8d
(16d
16e)
8a
8f#
=16
(8.e
16f#)
16d
16e
16d
16B
=17
2A
==
*-
!!!PPR: Yin yueh ch'u pan she
!!!OPR: Chung-kuo min ko Chung-kuo yin yueh yen chiu so pien [Chinese folk songs]
!!!OCL: Chung-kuo yin yueh yen chiu so
!!!PPP: Beijing, China
!!!PDT: 1959///
!!!SML: Edward Johnson Library, University of Toronto M1804.C4694C5
!!!PPG: p.6
!!!ENC: David Huron
!!!EMD: Paul von Hippel updated this file in the following ways (1998/9/29/):
!!!EMD:  (1) changed the representation of slurs from curly braces to parentheses 
!!!EMD:  (2) changed freeform comments into reference records and tandem interpretations
!!!EMD:  (3) corrected the author, title, author, and call number of the printed source 
!!!EEV: Version 2.0
